fs/desktop_32_filled.svg

<svg viewBox="0 0 32 32" fill="none" xmlns="http://www.w3.org/2000/svg" height="1em" width="1em">
  <path d="M2 6.25C2 4.45507 3.45507 3 5.25 3H26.75C28.5449 3 30 4.45507 30 6.25V21.75C30 23.5449 28.5449 25 26.75 25H20.0059V27.0012L23.0042 27.0012C23.5565 27.0012 24.0042 27.4486 24.0042 28.0005C24.0042 28.5525 23.5565 28.9999 23.0043 28.9999L9.01197 29C8.45969 29 8.01197 28.5526 8.01196 28.0007C8.01196 27.4488 8.45967 27.0013 9.01196 27.0013L12.01 27.0013V25H5.25C3.45507 25 2 23.5449 2 21.75V6.25ZM14.01 25V27.0013L18.0059 27.0013V25H14.01Z" fill="#212121"/>
</svg>

<svg viewBox="0 0 32 32" fill="none" xmlns="http://www.w3.org/2000/svg" height="1em" width="1em">
  <path d="M2 6.25A3.25 3.25 0 0 1 5.25 3h21.5A3.25 3.25 0 0 1 30 6.25v15.5A3.25 3.25 0 0 1 26.75 25h-6.744v2.001h2.998a1 1 0 1 1 0 1.999H9.012a1 1 0 1 1 0-1.999h2.998V25H5.25A3.25 3.25 0 0 1 2 21.75V6.25ZM14.01 25v2.001h3.996V25H14.01Z" fill="#212121"/>
</svg>
